svgs/thin/windsock.svg

<svg xmlns="http://www.w3.org/2000/svg" viewBox="0 0 512 512"><!--! Font Awesome Pro 6.6.0 by @fontawesome - https://fontawesome.com License - https://fontawesome.com/license (Commercial License) Copyright 2024 Fonticons, Inc. --><path d="M8 0c4.4 0 8 3.6 8 8l0 120 80 0 0-41.3c0-20.1 18.3-35.2 38-31.4L486 123c15.1 2.9 26 16.1 26 31.4l0 107.1c0 15.3-10.9 28.5-26 31.4L134 360.7c-19.7 3.8-38-11.3-38-31.4L96 288l-80 0 0 216c0 4.4-3.6 8-8 8s-8-3.6-8-8L0 280 0 136 0 8C0 3.6 3.6 0 8 0zm8 144l0 128 80 0 0-128-80 0zm96 185.3c0 10 9.2 17.6 19 15.7l85-16.3 0-241.3L131 71c-9.9-1.9-19 5.7-19 15.7l0 41.3 0 16 0 128 0 16 0 41.3zm120-3.7l144-27.7 0-179.7L232 90.4l0 235.1zM392 121.2l0 173.6 91-17.5c7.5-1.4 13-8 13-15.7l0-107.1c0-7.7-5.4-14.3-13-15.7l-91-17.5z"/></svg>

<svg xmlns="http://www.w3.org/2000/svg" viewBox="0 0 512 512"><!--! Font Awesome Pro 6.4.2 by @fontawesome - https://fontawesome.com License - https://fontawesome.com/license (Commercial License) Copyright 2023 Fonticons, Inc. --><path d="M8 0c4.4 0 8 3.6 8 8V128H96V86.7c0-20.1 18.3-35.2 38-31.4L486 123c15.1 2.9 26 16.1 26 31.4V261.6c0 15.3-10.9 28.5-26 31.4L134 360.7c-19.7 3.8-38-11.3-38-31.4V288H16V504c0 4.4-3.6 8-8 8s-8-3.6-8-8V280 136 8C0 3.6 3.6 0 8 0zm8 144V272H96V144H16zm96 185.3c0 10 9.2 17.6 19 15.7l85-16.3V87.4L131 71c-9.9-1.9-19 5.7-19 15.7V128v16V272v16 41.3zm120-3.7l144-27.7V118.1L232 90.4V325.6zM392 121.2V294.8l91-17.5c7.5-1.4 13-8 13-15.7V154.4c0-7.7-5.4-14.3-13-15.7l-91-17.5z"/></svg>
